X:415
T:Southern Flavor
C:Bill Monroe
N:arr. by S.M. Block
R:bluegrass
L:1/8
Q:1/4=260
M:4/4
K:E
z2 [BF][BF] [B2F2] =d2 |: {=d}"Em"ee ee ee e=g | "D"e=d BA BB BA | "Em"=GE EE EE EE | 
(3=DED B,B, B,B, B,B, | "Em"{=d}ee ee ee ef | "D"=gf gf e=d BA | "B7"[BF][BF] [BF][BF] [BF][BF] [BF]=d | 
B2 [BF]=d B2 d2 | {=d}"Em"ee ee ee e=g | "D"e=d BA BB BA | "Em"B=d BA =GF E=D | 
[E2B,2] [EB,][EB,] [E2B,2] F2 | "G"[B=G][BG] [BG][BG] [BG][BG] [B2G2] | "F#"[^A2F2] [AF][AF] F=G F=D | 
"Em"[E3B,3][EB,] [EB,][EB,] [E2B,2] |1 [E2B,2] [BF][BF] [B2F2] =d2 :|2 [E2B,2] [EB,][EB,] E2 D2 | 
"D"=DC DE FE F=G | AB A=G FE =D2 | "E"[BG][BG] [BG][BG] [BG]F EC | [EB,][EB,] [EB,][EB,] [EB,][EB,] [E2B,2] | 
"D"=DC DE FE F=G | AB A=G FE =D2 | "B7"D=D ^DE F=G A^A | B2 Bc =d^d f2 | {=d}"Em"ee ee ee e=g | 
"D"e=d BA BB BA | "Em"=GE EE EE EE | (3=DED B,B, B,B, B,B, | "G"[B3=G3][BG] [BG][BG] [B2G2] | 
"F#"[^A2F2] [AF][AF] [AF]=G F=D | "E"[E3B,3][EB,] [EB,][EB,] [E2B,2] | [E8B,8] | 


